Catalina-dark/actions/symbolic/insert-link.svg

<?xml version="1.0" encoding="UTF-8" standalone="no"?>
<svg
   xmlns:dc="http://purl.org/dc/elements/1.1/"
   xmlns:cc="http://creativecommons.org/ns#"
   xmlns:rdf="http://www.w3.org/1999/02/22-rdf-syntax-ns#"
   xmlns:svg="http://www.w3.org/2000/svg"
   xmlns="http://www.w3.org/2000/svg"
   xmlns:sodipodi="http://sodipodi.sourceforge.net/DTD/sodipodi-0.dtd"
   xmlns:inkscape="http://www.inkscape.org/namespaces/inkscape"
   width="16"
   height="16"
   viewBox="0 0 16 16"
   version="1.1"
   id="svg7"
   sodipodi:docname="document-open-remote.svg"
   inkscape:version="0.92.4 5da689c313, 2019-01-14">
  <metadata
     id="metadata11">
    <rdf:RDF>
      <cc:Work
         rdf:about="">
        <dc:format>image/svg+xml</dc:format>
        <dc:type
           rdf:resource="http://purl.org/dc/dcmitype/StillImage" />
      </cc:Work>
    </rdf:RDF>
  </metadata>
  <sodipodi:namedview
     pagecolor="#ffffff"
     bordercolor="#666666"
     borderopacity="1"
     objecttolerance="10"
     gridtolerance="10"
     guidetolerance="10"
     inkscape:pageopacity="0"
     inkscape:pageshadow="2"
     inkscape:window-width="640"
     inkscape:window-height="480"
     id="namedview9"
     showgrid="false"
     inkscape:zoom="14.75"
     inkscape:cx="6.8135593"
     inkscape:cy="8"
     inkscape:window-x="0"
     inkscape:window-y="26"
     inkscape:window-maximized="0"
     inkscape:current-layer="svg7" />
  <defs
     id="defs3">
    <style
       id="current-color-scheme"
       type="text/css">
   .ColorScheme-Text { color:#5c616c; } .ColorScheme-Highlight { color:#5294e2; }
  </style>
  </defs>
  <path
     style="fill:#f1f6f8;fill-opacity:0.8509804"
     class="ColorScheme-Text"
     d="M 5 0 C 2.23 0 0 2.23 0 5 C 0 7.77 2.23 10 5 10 L 7 10 L 7 8 L 5 8 C 3.338 8 2 6.662 2 5 C 2 3.338 3.338 2 5 2 L 7 2 L 7 0 L 5 0 z M 9 0 L 9 2 L 11 2 C 12.662 2 14 3.338 14 5 C 14 6.662 12.662 8 11 8 L 9 8 L 9 10 L 11 10 C 13.77 10 16 7.77 16 5 C 16 2.23 13.77 0 11 0 L 9 0 z M 5 4 L 5 6 L 11 6 L 11 4 L 5 4 z M 5 12.011719 L 8 16.011719 L 11 12.011719 L 5 12.011719 z"
     id="path5" />
</svg>

<svg width="16" height="16" version="1.1" viewBox="0 0 16 16" xmlns="http://www.w3.org/2000/svg">
<defs>
<style id="current-color-scheme" type="text/css">.ColorScheme-Text { color:#5c616c; } .ColorScheme-Highlight { color:#5294e2; }</style>
</defs>
<path class="ColorScheme-Text" d="m5 0c-2.77 0-5 2.23-5 5s2.23 5 5 5h2v-2h-2c-1.662 0-3-1.338-3-3s1.338-3 3-3h2v-2h-2zm4 0v2h2c1.662 0 3 1.338 3 3s-1.338 3-3 3h-2v2h2c2.77 0 5-2.23 5-5s-2.23-5-5-5h-2zm-4 4v2h6v-2h-6zm0 8.0117 3 4 3-4h-6z" fill="#f1f6f8" fill-opacity=".85098"/>
</svg>
